wrench-clock.svg

<svg fill="currentColor" viewBox="0 0 24 24"><path d="M10 6.2C10 4.3 8.8 2.6 7 2v3.7H4V2c-1.8.6-3 2.3-3 4.2s1.2 3.6 3 4.2v11c0 .4.2.6.5.6h2c.3 0 .5-.2.5-.5v-11c1.8-.6 3-2.3 3-4.3M16 8s-.1 0 0 0c-3.9.1-7 3.2-7 7 0 3.9 3.1 7 7 7s7-3.1 7-7-3.1-7-7-7m0 12c-2.8 0-5-2.2-5-5s2.2-5 5-5 5 2.2 5 5-2.2 5-5 5m-1-9v5l3.6 2.2.8-1.2-2.9-1.7V11z"/></svg>

<svg  viewBox="0 0 24 24" fill="currentColor"><path  d="M10 6.2C10 4.3 8.8 2.6 7 2V5.7H4V2C2.2 2.6 1 4.3 1 6.2C1 8.1 2.2 9.8 4 10.4V21.4C4 21.8 4.2 22 4.5 22H6.5C6.8 22 7 21.8 7 21.5V10.5C8.8 9.9 10 8.2 10 6.2M16 8C16 8 15.9 8 16 8C12.1 8.1 9 11.2 9 15C9 18.9 12.1 22 16 22S23 18.9 23 15 19.9 8 16 8M16 20C13.2 20 11 17.8 11 15S13.2 10 16 10 21 12.2 21 15 18.8 20 16 20M15 11V16L18.6 18.2L19.4 17L16.5 15.3V11H15Z"/></svg>
